launcher/android/assets/skins/day/svg/mapSolved0.svg

<svg enable-background="new 0 0 37.87 56.00" height="56.0001" viewBox="0 0 37.87 56" width="37.8665" xmlns="http://www.w3.org/2000/svg" xmlns:xlink="http://www.w3.org/1999/xlink"><linearGradient id="a" gradientTransform="matrix(-.966394799919 .257062425667 -.257062425667 -.966394799919 2.065215076056 .614889019071)" gradientUnits="objectBoundingBox" x1=".992416" x2="1.98394" y1=".442435" y2=".442435"><stop offset=".00925926" stop-color="#fff"/><stop offset="1" stop-color="#fcfcff" stop-opacity="0"/></linearGradient><linearGradient id="b"><stop offset=".00925926" stop-color="#fff"/><stop offset="1" stop-color="#fff" stop-opacity="0"/></linearGradient><linearGradient id="c" gradientTransform="matrix(-.968599414072 .248626577539 -.248626577539 -.968599414072 2.063121269198 .620139673636)" gradientUnits="objectBoundingBox" x1=".9924" x2="1.9844" xlink:href="#b" y1=".440352" y2=".440352"/><linearGradient id="d" gradientTransform="matrix(-.940434657332 .339974492114 -.339974492114 -.940434657332 2.119018239046 .542370712737)" gradientUnits="objectBoundingBox" x1="1.012" x2="2.01996" xlink:href="#b" y1=".456817" y2=".456817"/><g stroke-linejoin="round"><path d="m17.5845 43.9606c3.1452 0 5.6948 2.5832 5.6948 5.7697 0 3.1866-2.5496 5.7698-5.6948 5.7698s-5.6948-2.5832-5.6948-5.7698c0-3.1865 2.5496-5.7697 5.6948-5.7697z" fill="#407308" stroke="#000"/><path d="m9.64172 25.2274-5.09539-2.2478-2.69754-3.2971-1.198949-2.9971-.149841-3.8965 1.19891-3.14718 1.79834-2.84741 1.94825-1.94824 3.29699-2.24805 2.54771-1.04907 3.297-.599365 3.4469-.149902 3.5967-.299805 3.4469.449707 2.2479 1.049075 2.9973 1.49853 2.6975 1.94824 1.9483 2.09815 2.0981 3.59672.2997 3.2971-.4496 4.196-1.3488 2.2481-2.2479 2.3979-2.6976 2.9971-3.5967 2.5478-3.5967 2.9974-1.9482 3.4467-1.0491 2.398.0815 1.0591-.1751.9453-.8618.4494-3.2408-.0561-1.1989-.8992v-2.6975l1.9482-3.1472 2.5477-3.7466 3.4469-3.8965 1.3488-2.0981 1.1989-3.4468v-3.1472l-.7493-3.5967-1.7984-1.7983-2.9973-1.3489-2.6976-.29957-2.2479.14967-2.6976.8992-1.7983 1.6486v1.9483l.5994 1.9482 2.248 1.4986 1.4986.8991.4496 1.4988-.2997 1.6484-.8992 1.199-1.049 1.0488-1.9483.4498z" fill="#407308" stroke="#000"/><g stroke-width=".2"><path d="m23.2294 2.44812 3.3969 2.29785 2.7974 2.19824 2.4977 3.09719 1.099 2.7973.3997 3.6968-.5994 3.5967-.9991 1.6985 1.3879.4634 2.8083-3.7605.4995-2.8972-.0999-3.8965-2.1588-3.53299-1.338-1.5625-.4996-.69946-1.3987-.89917-1.9982-1.49854-1.9982-.89917-1.7984-.39966z" fill="url(#a)"/><path d="m10.2911 16.2606-.88668-.6118-.71185 1.7109 1.19891 1.2989 1.19892 1.3987.2997 1.5986-.0999 1.7983-.1624.6118 1.3239-.2248 1.099-.6243.8492-.7993-.025-1.0491.0999-1.0239-.2997-.8494-1.3987-.8991-1.0241-.6494-.8992-.6495" fill="url(#c)"/><path d="m18.0341 44.8097 1.099 1.2988.6993 1.3989-.0999 1.9981-.3996 1.9983-.6994 1.6985.1999.8991 1.007-.03 1.149-.6743.9241-1.2488.4996-1.4736s.2424-1.1128.1169-1.5689c-.1093-.3972-.2997-1.5984-.2997-1.5984l-.3997-1.1989-.9991-.8992-.8991-.5996z" fill="url(#d)"/></g></g></svg>

﻿<?xml version="1.0" encoding="utf-8"?>
<!DOCTYPE svg PUBLIC "-//W3C//DTD SVG 1.1//EN" "http://www.w3.org/Graphics/SVG/1.1/DTD/svg11.dtd">
<svg xmlns="http://www.w3.org/2000/svg" xmlns:xlink="http://www.w3.org/1999/xlink" version="1.1" baseProfile="full" width="37.8665" height="56.0001" viewBox="0 0 37.87 56.00" enable-background="new 0 0 37.87 56.00" xml:space="preserve">
	<g>
		<path fill="#407308" fill-opacity="1" stroke-linejoin="round" stroke="#000000" stroke-opacity="1" d="M 17.5845,43.9606C 20.7297,43.9606 23.2793,46.5438 23.2793,49.7303C 23.2793,52.9169 20.7297,55.5001 17.5845,55.5001C 14.4393,55.5001 11.8897,52.9169 11.8897,49.7303C 11.8897,46.5438 14.4393,43.9606 17.5845,43.9606 Z "/>
		<path fill="#407308" fill-opacity="1" stroke-linejoin="round" stroke="#000000" stroke-opacity="1" d="M 9.64172,25.2274L 4.54633,22.9796L 1.84879,19.6825L 0.649841,16.6854L 0.5,12.7889L 1.69891,9.64172L 3.49725,6.79431L 5.4455,4.84607L 8.74249,2.59802L 11.2902,1.54895L 14.5872,0.949585L 18.0341,0.799683L 21.6308,0.499878L 25.0777,0.949585L 27.3256,1.99866L 30.3229,3.49719L 33.0204,5.44543L 34.9687,7.54358L 37.0668,11.1403L 37.3665,14.4374L 36.9169,18.6334L 35.5681,20.8815L 33.3202,23.2794L 30.6226,26.2765L 27.0259,28.8243L 23.4292,31.8217L 21.481,35.2684L 20.4319,37.6664L 20.5134,38.7255L 20.3383,39.6708L 19.4765,40.1202L 16.2357,40.0641L 15.0368,39.1649L 15.0368,36.4674L 16.985,33.3202L 19.5327,29.5736L 22.9796,25.6771L 24.3284,23.579L 25.5273,20.1322L 25.5273,16.985L 24.778,13.3883L 22.9796,11.59L 19.9823,10.2411L 17.2847,9.94153L 15.0368,10.0912L 12.3392,10.9904L 10.5409,12.639L 10.5409,14.5873L 11.1403,16.5355L 13.3883,18.0341L 14.8869,18.9332L 15.3365,20.432L 15.0368,22.0804L 14.1376,23.2794L 13.0886,24.3282L 11.1403,24.778L 9.64172,25.2274 Z "/>
		<linearGradient id="SVGID_Fill1_" gradientUnits="objectBoundingBox" x1="0.992416" y1="0.442435" x2="1.98394" y2="0.442435" gradientTransform="rotate(165.104172 0.992416 0.442435)">
			<stop offset="0.00925926" stop-color="#FFFFFF" stop-opacity="1"/>
			<stop offset="1" stop-color="#FCFCFF" stop-opacity="0"/>
		</linearGradient>
		<path fill="url(#SVGID_Fill1_)" stroke-width="0.2" stroke-linejoin="round" d="M 23.2294,2.44812L 26.6263,4.74597L 29.4237,6.94421L 31.9214,10.0414L 33.0204,12.8387L 33.4201,16.5355L 32.8207,20.1322L 31.8216,21.8307L 33.2095,22.2941L 36.0178,18.5336L 36.5173,15.6364L 36.4174,11.7399L 34.2586,8.20691L 32.9206,6.64441L 32.421,5.94495L 31.0223,5.04578L 29.0241,3.54724L 27.0259,2.64807L 25.2275,2.24841L 23.2294,2.44812 Z "/>
		<linearGradient id="SVGID_Fill2_" gradientUnits="objectBoundingBox" x1="0.9924" y1="0.440352" x2="1.9844" y2="0.440352" gradientTransform="rotate(165.603745 0.992400 0.440352)">
			<stop offset="0.00925926" stop-color="#FFFFFF" stop-opacity="1"/>
			<stop offset="1" stop-color="#FFFFFF" stop-opacity="0"/>
		</linearGradient>
		<path fill="url(#SVGID_Fill2_)" stroke-width="0.2" stroke-linejoin="round" d="M 10.2911,16.2606L 9.40442,15.6488L 8.69257,17.3597L 9.89148,18.6586L 11.0904,20.0573L 11.3901,21.6559L 11.2902,23.4542L 11.1278,24.066L 12.4517,23.8412L 13.5507,23.2169L 14.3999,22.4176L 14.3749,21.3685L 14.4748,20.3446L 14.1751,19.4952L 12.7764,18.5961L 11.7523,17.9467L 10.8531,17.2972"/>
		<linearGradient id="SVGID_Fill3_" gradientUnits="objectBoundingBox" x1="1.012" y1="0.456817" x2="2.01996" y2="0.456817" gradientTransform="rotate(160.124680 1.011996 0.456817)">
			<stop offset="0.00925926" stop-color="#FFFFFF" stop-opacity="1"/>
			<stop offset="1" stop-color="#FFFFFF" stop-opacity="0"/>
		</linearGradient>
		<path fill="url(#SVGID_Fill3_)" stroke-width="0.2" stroke-linejoin="round" d="M 18.0341,44.8097L 19.1331,46.1085L 19.8324,47.5074L 19.7325,49.5055L 19.3329,51.5038L 18.6335,53.2023L 18.8334,54.1014L 19.8404,54.0714L 20.9894,53.3971L 21.9135,52.1483L 22.4131,50.6747C 22.4131,50.6747 22.6555,49.5619 22.53,49.1058C 22.4207,48.7086 22.2303,47.5074 22.2303,47.5074L 21.8306,46.3085L 20.8315,45.4093L 19.9324,44.8097L 18.0341,44.8097 Z "/>
	</g>
</svg>
